svg/vsd.svg

<?xml version="1.0" encoding="UTF-8"?>
<svg xmlns="http://www.w3.org/2000/svg" xmlns:xlink="http://www.w3.org/1999/xlink" width="32" height="32" viewBox="0 0 32 32">
<rect x="-3.2" y="-3.2" width="38.4" height="38.4" fill="rgb(100%, 100%, 100%)" fill-opacity="1"/>
<path fill-rule="nonzero" fill="rgb(0%, 0%, 0%)" fill-opacity="1" d="M 32 32 L 0 32 L 0 0 L 32 0 Z M 3.105469 28.800781 L 28.929688 28.800781 L 28.929688 3.199219 L 3.105469 3.199219 M 7.359375 10.015625 L 17.121094 8.160156 L 17.121094 24.542969 L 7.359375 22.71875 Z M 23.902344 22.945312 L 15.648438 22.945312 C 15.230469 22.945312 14.914062 22.589844 14.914062 22.207031 L 14.914062 10.558594 C 14.914062 10.144531 15.265625 9.824219 15.648438 9.824219 L 23.9375 9.824219 C 24.351562 9.824219 24.671875 10.175781 24.671875 10.558594 L 24.671875 22.242188 C 24.636719 22.640625 24.304688 22.945312 23.902344 22.945312 Z M 15.648438 10.464844 C 15.585938 10.464844 15.585938 10.496094 15.585938 10.527344 L 15.585938 22.207031 C 15.585938 22.273438 15.617188 22.273438 15.648438 22.273438 L 23.9375 22.273438 C 24 22.273438 24 22.238281 24 22.207031 L 24 10.558594 C 24 10.496094 23.96875 10.496094 23.9375 10.496094 L 15.648438 10.496094 Z M 15.648438 10.464844 "/>
<path fill="none" stroke-width="5.12" stroke-linecap="butt" stroke-linejoin="miter" stroke="rgb(21.568628%, 32.549021%, 61.56863%)" stroke-opacity="1" stroke-miterlimit="10" d="M 128 141.3125 L 150.03125 141.3125 L 150.03125 163.3125 L 128 163.3125 Z M 153.84375 107.4375 L 167.0625 94.21875 L 180.28125 107.4375 L 167.0625 120.625 Z M 153.59375 108.03125 L 135.4375 108.03125 M 168.1875 119.5625 L 168.1875 152.3125 M 150.03125 152.3125 L 171.78125 152.3125 " transform="matrix(0.125, 0, 0, 0.125, 0, 0)"/>
<path fill-rule="nonzero" fill="rgb(100%, 100%, 100%)" fill-opacity="1" stroke-width="1.92" stroke-linecap="butt" stroke-linejoin="miter" stroke="rgb(100%, 100%, 100%)" stroke-opacity="1" stroke-miterlimit="10" d="M 80.375 112.90625 L 88.0625 112.90625 L 96.5 138.25 C 97.28125 140.53125 98.0625 143.875 98.0625 143.875 C 98.0625 143.875 98.8125 140.28125 99.59375 138.25 L 108.28125 112.90625 L 115.96875 112.90625 L 101.625 151.8125 L 94.71875 151.8125 Z M 80.375 112.90625 " transform="matrix(0.125, 0, 0, 0.125, 0, 0)"/>
</svg>

<svg role="img" viewBox="0 0 32 32" xmlns="http://www.w3.org/2000/svg"><path d="M-3.2-3.2h38.4v38.4H-3.2z" fill="rgb(100%, 100%, 100%)"/><path d="M32 32H0V0h32ZM3.105 28.8H28.93V3.2H3.105m4.254 6.816 9.762-1.856v16.383L7.36 22.719Zm16.543 12.93h-8.254a.744.744 0 0 1-.734-.739V10.559c0-.414.352-.735.734-.735h8.29c.414 0 .734.352.734.735v11.683a.77.77 0 0 1-.77.703m-8.254-12.481c-.062 0-.062.031-.062.062v11.68c0 .066.031.066.062.066h8.29c.062 0 .062-.035.062-.066V10.559c0-.063-.031-.063-.062-.063h-8.29Zm0 0" fill="rgb(0%, 0%, 0%)"/><path d="M16 17.664h2.754v2.75H16Zm3.23-4.234 1.653-1.653 1.652 1.653-1.652 1.648Zm-.03.074h-2.27m4.093 1.441v4.094m-2.27 0h2.72" fill="none" stroke="rgb(21.568628%, 32.549021%, 61.56863%)" stroke-miterlimit="10" stroke-width=".64"/><path d="M10.047 14.113h.96l1.056 3.168c.097.285.195.703.195.703s.094-.449.191-.703l1.086-3.168h.961l-1.793 4.864h-.863Zm0 0" fill="rgb(100%, 100%, 100%)" stroke="rgb(100%, 100%, 100%)" stroke-miterlimit="10" stroke-width=".24"/></svg>
